src/lib/packages/icons/src/assets/line/package-dollar.svg

<svg width="24" height="24" viewBox="0 0 24 24" fill="none" xmlns="http://www.w3.org/2000/svg">
<path d="M21.413 8.71701L20.343 4.97C19.961 3.633 19.566 2.25 16.738 2.25H7.26294C4.43494 2.25 4.03896 3.633 3.65796 4.97L2.58801 8.71701C2.36401 9.49901 2.25098 10.308 2.25098 11.121V18C2.25098 20.418 3.58298 21.75 6.00098 21.75H18.001C20.419 21.75 21.751 20.418 21.751 18V11.12C21.75 10.307 21.637 9.49901 21.413 8.71701ZM18.901 5.38199L19.9709 9.129C19.9819 9.169 19.9859 9.21101 19.9969 9.25101H12.75V3.75101H16.7371C18.4351 3.75001 18.552 4.16099 18.901 5.38199ZM5.099 5.38199C5.449 4.16099 5.56594 3.75 7.26294 3.75H11.25V9.25H4.00305C4.01405 9.21 4.01705 9.168 4.02905 9.129L5.099 5.38199ZM20.25 18C20.25 19.577 19.577 20.25 18 20.25H6C4.423 20.25 3.75 19.577 3.75 18V11.12C3.75 10.996 3.769 10.873 3.776 10.75H20.224C20.23 10.874 20.25 10.996 20.25 11.12V18ZM14.25 16.912C14.25 17.456 14.0439 17.969 13.6689 18.358C13.4079 18.629 13.085 18.809 12.735 18.901V19.001C12.735 19.415 12.399 19.751 11.985 19.751C11.571 19.751 11.235 19.415 11.235 19.001V18.893C10.455 18.675 9.85499 17.997 9.76099 17.138C9.71699 16.726 10.015 16.356 10.426 16.312C10.837 16.268 11.2081 16.565 11.2531 16.977C11.2831 17.261 11.5029 17.475 11.7629 17.475H12.236C12.413 17.475 12.533 17.378 12.589 17.32C12.693 17.212 12.75 17.068 12.75 16.915C12.75 16.655 12.587 16.43 12.354 16.369L11.27 16.09C10.829 15.974 10.437 15.71 10.166 15.345C9.90002 14.996 9.75098 14.549 9.75098 14.092C9.75098 13.144 10.383 12.352 11.236 12.113V12C11.236 11.586 11.572 11.25 11.986 11.25C12.4 11.25 12.736 11.586 12.736 12V12.1C13.53 12.308 14.144 12.994 14.239 13.864C14.283 14.276 13.985 14.646 13.574 14.69C13.169 14.735 12.7919 14.437 12.7469 14.025C12.7169 13.742 12.4971 13.528 12.2371 13.528H11.764C11.481 13.528 11.25 13.779 11.25 14.089C11.25 14.219 11.29 14.344 11.363 14.439C11.438 14.54 11.534 14.606 11.646 14.635L12.73 14.914C13.627 15.149 14.25 15.97 14.25 16.912Z" fill="currentColor"/>
</svg>

<svg xmlns="http://www.w3.org/2000/svg" width="24" height="24" fill="none"><path fill="currentColor" d="m21.413 8.717-1.07-3.747c-.382-1.337-.777-2.72-3.605-2.72H7.263c-2.828 0-3.224 1.383-3.605 2.72l-1.07 3.747a8.729 8.729 0 0 0-.337 2.404V18c0 2.418 1.332 3.75 3.75 3.75h12c2.418 0 3.75-1.332 3.75-3.75v-6.88a8.76 8.76 0 0 0-.338-2.403Zm-2.512-3.335 1.07 3.747c.01.04.015.082.026.122H12.75v-5.5h3.987c1.698-.001 1.815.41 2.164 1.631Zm-13.802 0c.35-1.221.467-1.632 2.164-1.632h3.987v5.5H4.003c.011-.04.014-.082.026-.121L5.1 5.382ZM20.25 18c0 1.577-.673 2.25-2.25 2.25H6c-1.577 0-2.25-.673-2.25-2.25v-6.88c0-.124.019-.247.026-.37h16.448c.006.124.026.246.026.37V18Zm-6-1.088c0 .544-.206 1.057-.581 1.446a1.987 1.987 0 0 1-.934.543v.1a.75.75 0 0 1-1.5 0v-.108a2.043 2.043 0 0 1-1.474-1.755.75.75 0 0 1 1.492-.161c.03.284.25.498.51.498h.473a.493.493 0 0 0 .353-.155.58.58 0 0 0 .161-.405.553.553 0 0 0-.396-.546l-1.084-.279a2.018 2.018 0 0 1-1.104-.745 2.08 2.08 0 0 1-.415-1.253c0-.948.632-1.74 1.485-1.979V12a.75.75 0 0 1 1.5 0v.1a2.042 2.042 0 0 1 1.503 1.764.75.75 0 0 1-1.492.161c-.03-.283-.25-.497-.51-.497h-.473c-.283 0-.514.251-.514.561 0 .13.04.255.113.35a.507.507 0 0 0 .283.196l1.084.279a2.054 2.054 0 0 1 1.52 1.998Z"/></svg>
